!!!OTL: Folk song Number 1
!!!CNT: Chinese
**kern
*k[b-]
*M2/4
=1
4cc
(8cc
8dd)
=2
2g
=3
4f
(8f
8d)
=4
2g
=5
4cc
4cc
=6
(8dd
8ff)
8dd
8cc
=7
4f
(8f
8d)
=8
2g
=9
4cc
4g
=10
4f
(8e
8d)
=11
4c
4cc
=12
4g
8a
8g
=13
4f
(8f
8d)
=14
8g
8a
8g
8f
=15
(8g
8f)
(8e
8d)
=16
2c
==
*-
!!!PPR: Yin yueh ch'u pan she
!!!OPR: Chung-kuo min ko Chung-kuo yin yueh yen chiu so pien [Chinese folk songs]
!!!OCL: Chung-kuo yin yueh yen chiu so
!!!PPP: Beijing, China
!!!PDT: 1959///
!!!SML: Edward Johnson Library, University of Toronto M1804.C4694C5
!!!PPG: p.1
!!!ENC: David Huron
!!!EMD: Paul von Hippel updated this file in the following ways (1998/9/29/):
!!!EMD:  (1) changed the representation of slurs from curly braces to parentheses 
!!!EMD:  (2) changed freeform comments into reference records and tandem interpretations
!!!EMD:  (3) corrected the author, title, author, and call number of the printed source 
!!!EEV: Version 2.0
